!!!!SEGMENT: pl-kk--kk-i-15--017_asola-giovanni-matteo--filiae-jerusalem.krn
!!!cenid: 16xx:1134
!!!COM: Asola, Giovanni Matteo
!!!COM-rismID: pe20000387
!!!CDT: <=1532-1609/10/01
!!!CNT: Italian
!!!OTL: Filiae Jerusalem
!!!PDT:
!!!AGN: Sacred
!!!SMS-siglum: PL-Kk
!!!SMS-shelfmark: Kk.I.15
!!!SMS-shelfwork: 017 W
!!!SMS-variant:
!!!SMS-altvar:
!!!NIFC-rismSourceID: 1001147292
!!!NIFC-islandoraID: pl-kk:2631
!!!URL-pdf-islandora: https://repozytorium.nifc.pl/islandora/object/pl-kk%3A2631/datastream/PDF/view
!!!URL-scan: https://polish.musicsources.pl/pl/lokalizacje/galeria/rekopisy/5777 @EN{Scan on Polish Music Herritage in Open Access Website} @PL{Skany w portalu Dziedzictwo Muzyki Polskiej w otwartym dostępie}
!!!ONB-nifc: UWAGA: C (skan 0011), A (skan 0028-0029), T (skan 0045-0046), B (skan 0063-0064). Następny motet: Regnum mundi
!!!AIN: 1 alto 1 empty 1 tenor 1 vox
!!!key:
**kern	**text	**kern	**text	**kern	**text	**kern	**text
*part4	*part4	*part3	*part3	*part2	*part2	*part1	*part1
*staff4	*staff4	*staff3	*staff3	*staff2	*staff2	*staff1	*staff1
*Iempty	*	*Itenor	*	*Ialto	*	*Ivox	*
*I"Baſso	*	*I"Tenore.	*	*I"Alto	*	*I"Canto.	*
*I'B	*	*I'T	*	*I'A	*	*I'S	*
*clefC4	*	*clefC1	*	*clefC3	*	*clefC2	*
*	*	*ITrd7c12	*	*	*	*	*
*k[]	*	*k[]	*	*k[]	*	*k[]	*
*d:	*	*d:	*	*d:	*	*d:	*
*M2/1	*	*M2/1	*	*M2/1	*	*M2/1	*
*met(c|)	*	*met(c|)	*	*met(c|)	*	*met(c|)	*
*MM270	*	*MM270	*	*MM270	*	*MM270	*
=1	=1	=1	=1	=1	=1	=1	=1
*all\right	*	*all\right	*	*all\right	*	*all\right	*
!	!	!LO:TX:t=P:problem=Partia zawarta w księdze tenorowej, zapisana w kluczu C1, jest poza skalą tenorową, zdecydowałem zapisać ją z transpozycją (AB)	!	!	!	!	!
!	!	!LO:TX:t=P:problem=kreska pseudotaktowa	!	!	!	!	!
0r	.	00r	.	1.e\	Fi-	00r	.
!	!	!	!	!LO:TX:t=P:problem=kreska pseudotaktowa	!	!	!
.	.	.	.	2e\	-li-	.	.
=2-	=2-	=2-	=2-	=2-	=2-	=2-	=2-
!	!	!	!	!LO:TX:t=P:problem=kreska pseudotaktowa	!	!	!
2r	.	.	.	1A/	-ae	.	.
1A\	Fi-	.	.	.	.	.	.
.	.	.	.	1e\	Je-	.	.
!LO:TX:t=P:problem=kreska pseudotaktowa	!	!	!	!	!	!	!
2A/	-li-	.	.	.	.	.	.
=3-	=3-	=3-	=3-	=3-	=3-	=3-	=3-
1D/	-ae	1.A/	Fi-	2.f\	-ru-	00r	.
!	!	!	!	!LO:TX:t=P:problem=kreska pseudotaktowa	!	!	!
.	.	.	.	4f\	-sa-	.	.
!LO:TX:t=P:problem=kreska pseudotaktowa	!	!	!	!LO:TX:t=P:problem=kreska pseudotaktowa	!	!	!
1A\	Je-	.	.	1e\	-lem	.	.
.	.	2A\	-li-	.	.	.	.
=4-	=4-	=4-	=4-	=4-	=4-	=4-	=4-
!	!	!LO:TX:t=P:problem=kreska pseudotaktowa	!	!	!	!	!
2.B-X\	-ru-	1D/	-ae	2r	.	.	.
*	*	*	*	*	*ij	*	*
.	.	.	.	1d\	Fi-	.	.
4B-\	-sa-	.	.	.	.	.	.
2A/	-lem	1A/	Je-	.	.	.	.
!LO:TX:t=P:problem=kreska pseudotaktowa	!	!	!	!LO:TX:t=P:problem=kreska pseudotaktowa	!	!	!
2A/	Ve-	.	.	2c/	-li-	.	.
=5-	=5-	=5-	=5-	=5-	=5-	=5-	=5-
!	!	!	!	!	!	!LO:TX:t=P:problem=kreska pseudotaktowa	!
1G/	ni-	2.B\	-ru-	2d\	-ae	1re	.
.	.	.	.	2d\	Je-	.	.
!	!	!LO:TX:t=P:problem=kreska pseudotaktowa	!	!	!	!	!
.	.	4B\	-sa-	.	.	.	.
1A\	-te	2A\	-lem	2.c/	-ru-	1.e\	Fi-
.	.	2A\	Ve-	.	.	.	.
!	!	!	!	!LO:TX:t=P:problem=kreska pseudotaktowa	!	!	!
.	.	.	.	4c/	-sa-	.	.
=6-	=6-	=6-	=6-	=6-	=6-	=6-	=6-
2E/	et	1G/	-ni-	2B,</	-lem	.	.
*	*	*	*	*	*Xij	*	*
!LO:TX:t=P:problem=kreska pseudotaktowa	!	!	!	!	!	!	!
2E/	Vi-	.	.	1c\	Ve-	2e/	-li-
!	!	!LO:TX:t=P:problem=kreska pseudotaktowa	!	!	!	!LO:TX:t=P:problem=kreska pseudotaktowa	!
1F/	de-	1A/	-te	.	.	1A/	-ae
!	!	!	!	!LO:TX:t=P:problem=kreska pseudotaktowa	!	!	!
.	.	.	.	2d\	-ni-	.	.
=7-	=7-	=7-	=7-	=7-	=7-	=7-	=7-
*	*	*	*	*custos:c	*	*	*
2E/	-te	2r	.	2B/	-te	1e\	Je-
!	!	!	!	!LO:LB:g=original	!	!	!
1A\	et	1c/	Ve-	1c\	et	.	.
.	.	.	.	.	.	2.f\	-ru-
*custos:c	*	*	*	*	*	*	*
!LO:TX:t=P:problem=kreska pseudotaktowa	!	!	!	!LO:TX:t=P:problem=kreska pseudotaktowa	!	!	!
2Bny\	Vi-	4B\	.	2d\	Vi-	.	.
!	!	!LO:TX:t=P:problem=kreska pseudotaktowa	!	!	!	!LO:TX:t=P:problem=kreska pseudotaktowa	!
.	.	4A\	.	.	.	4f\	-sa-
=8-	=8-	=8-	=8-	=8-	=8-	=8-	=8-
!LO:LB:g=original	!	!	!	!	!	!	!
2c\	-de-	2G/	.	2e\	-de-	2e/	-lem
!LO:TX:t=P:problem=kreska pseudotaktowa	!	!	!	!	!	!	!
2A/	-te	1A/	.	2c/	-te	2e/	Ve-
2.B\	Mar-	.	.	2.d\	Mar-	1d/	-ni-
!	!	!LO:TX:t=P:problem=kreska pseudotaktowa	!	!	!	!	!
.	.	2G/	-ni-	.	.	.	.
!	!	!	!	!LO:TX:t=P:problem=kreska pseudotaktowa	!	!	!
4B\	-ty-	.	.	4d\	-ty-	.	.
=9-	=9-	=9-	=9-	=9-	=9-	=9-	=9-
!LO:TX:t=P:problem=kreska pseudotaktowa	!	!	!	!	!	!	!
1A\	-res	2A,<\	-te	2c,</	-res	2e/	-te
*	*	*custos:f	*	*	*	*	*
.	.	2E/	et	2c/	et	1a\	et
!	!	!LO:LB:g=original	!	!LO:TX:t=P:problem=kreska pseudotaktowa	!	!	!
2r	.	2.F/	Vi-	1d\	Vi-	.	.
!	!	!	!	!	!	!LO:TX:t=P:problem=kreska pseudotaktowa	!
2.D/	et	.	.	.	.	2a\	Vi-
!	!	!LO:TX:t=P:problem=kreska pseudotaktowa	!	!	!	!	!
.	.	4G/	.	.	.	.	.
=10-	=10-	=10-	=10-	=10-	=10-	=10-	=10-
.	.	4A\	.	2.A/	-de-	1f\	-de-
4E/	.	4B\	.	.	.	.	.
4F/	.	2.A\	.	.	.	.	.
!LO:TX:t=P:problem=kreska pseudotaktowa	!	!	!	!	!	!	!
4G/	.	.	.	4B/	.	.	.
!	!	!	!	!	!	!LO:TX:t=P:problem=kreska pseudotaktowa	!
2A/	.	.	.	4c/	.	1e\	-te
.	.	4E/	.	4d\	.	.	.
2c\	Vi-	1A\	.	1e\	-te	.	.
=11-	=11-	=11-	=11-	=11-	=11-	=11-	=11-
1B\	-de-	.	.	.	.	1r	.
!	!	!	!	!LO:TX:t=P:problem=kreska pseudotaktowa	!	!	!
.	.	2G/	-de-	2d\	.	.	.
!LO:TX:t=P:problem=kreska pseudotaktowa	!	!LO:TX:t=P:problem=kreska pseudotaktowa	!	!	!	!LO:TX:t=P:problem=kreska pseudotaktowa	!
1A\	-te	0A/	-te	1c\	Mar-	1e\	et
=12-	=12-	=12-	=12-	=12-	=12-	=12-	=12-
!	!	!	!	!LO:TX:t=P:problem=kreska pseudotaktowa	!	!	!
2.D/	Mar-	.	.	1d\	.	2f\	Vi-
*	*	*	*	*	*	*custos:c	*
.	.	.	.	.	.	1d/	-de-
4D/	-ty-	.	.	.	.	.	.
!LO:TX:t=P:problem=kreska pseudotaktowa	!	!	!	!	!	!	!
*	*	*	*	*lig	*	*	*
1A\	-res	2r	.	1e\	.	.	.
!	!	!	!	!	!	!LO:TX:t=P:problem=kreska pseudotaktowa	!
!	!	!	!	!	!	!LO:LB:g=original	!
.	.	1A\	et	.	.	2c/	-te
=13-	=13-	=13-	=13-	=13-	=13-	=13-	=13-
*	*ij	*	*	*col	*	*	*
2r	.	.	.	2.f\	.	2.d/	Mar-
!	!	!LO:TX:t=P:problem=kreska pseudotaktowa	!	!	!	!	!
1d\	et	2A\	Vi-	.	.	.	.
*	*	*	*	*Xlig	*	*	*
.	.	.	.	4f\	-ty-	4d/	-ty-
*	*	*	*	*Xcol	*	*	*
!	!	!	!	!LO:TX:t=P:problem=kreska pseudotaktowa	!	!LO:TX:t=P:problem=kreska pseudotaktowa	!
.	.	1A/	-de-	1e\	-res	1A/	-res
2c\	Vi-	.	.	.	.	.	.
=14-	=14-	=14-	=14-	=14-	=14-	=14-	=14-
!	!	!LO:TX:t=P:problem=kreska pseudotaktowa	!	!	!	!	!
2d\	-de-	1A/	-te	1r	.	2r	.
*custos:e	*	*	*	*	*	*	*
!LO:TX:t=P:problem=kreska pseudotaktowa	!	!	!	!	!	!	!
2f\	-re	.	.	.	.	1a\	et
*	*	*	*	*custos:e	*	*	*
!LO:LB:g=original	!	!	!	!	!	!	!
2.e\	Mar-	2.B\	Mar-	2r	.	.	.
!	!	!	!	!LO:PB:g=original	!	!LO:TX:t=P:problem=kreska pseudotaktowa	!
.	.	.	.	1e\	et	2g\	Vi-
!	!	!LO:TX:t=P:problem=kreska pseudotaktowa	!	!	!	!	!
4e\	-ty-	4B\	-ty-	.	.	.	.
=15-	=15-	=15-	=15-	=15-	=15-	=15-	=15-
2A/	-res	2c\	-res	.	.	2a\	-de-
*	*Xij	*	*	*	*	*	*
!	!	!	!	!LO:TX:t=P:problem=kreska pseudotaktowa	!	!	!
1d\	cum	1A/	cum	2d\	Vi-	2.f\	-te
.	.	.	.	2A/	-de-	.	.
.	.	.	.	.	.	4e/	.
!LO:TX:t=P:problem=kreska pseudotaktowa	!	!LO:TX:t=P:problem=kreska pseudotaktowa	!	!	!	!LO:TX:t=P::problem=kreska pseudotaktowa&colon;między nutą a kropką	!
2c\	co-	2A\	co-	2A/	-re	2.e/	.
=16-	=16-	=16-	=16-	=16-	=16-	=16-	=16-
*	*	*	*	*lig	*	*	*
1Bn\	-ro-	1G/	-ro-	1d\	Mar-	.	.
.	.	.	.	.	.	4d/	.
.	.	.	.	.	.	1d/	Mar-
*	*	*	*	*col	*	*	*
*	*	*custos:dd	*	*	*	*	*
!	!	!LO:TX:t=P:problem=kreska pseudotaktowa	!	!	!	!	!
1A\	-nis	0A/	-nis	2.e\	.	.	.
.	.	.	.	.	.	2c/	-ty-
*	*	*	*	*Xlig	*	*	*
!	!	!	!	!LO:TX:t=P:problem=kreska pseudotaktowa	!	!	!
.	.	.	.	4e\	-ty-	.	.
*	*	*	*	*Xcol	*	*	*
=17-	=17-	=17-	=17-	=17-	=17-	=17-	=17-
!	!	!	!	!	!	!LO:TX:t=P:problem=kreska pseudotaktowa	!
2r	.	.	.	2d,<\	-res	1d/,<	-res
*	*	*	*	*	*ij	*	*
1d\	et	.	.	1f\	et	.	.
*	*	*	*	*	*	*	*ij
!	!	!LO:PB:g=original	!	!	!	!	!
.	.	1r	.	.	.	2.a\	et
!LO:TX:t=P:problem=kreska pseudotaktowa	!	!	!	!LO:TX:t=P:problem=kreska pseudotaktowa	!	!	!
2c\	Vi-	.	.	2e\	Vi-	.	.
.	.	.	.	.	.	4a\	Vi-
=18-	=18-	=18-	=18-	=18-	=18-	=18-	=18-
2d\	-de-	2r	.	2f\	-de-	2a\	-de-
!	!	!	!	!	!	!LO:TX:t=P:problem=kreska pseudotaktowa	!
2G/	-te	1d/	et	2g\	-re	2b\	-te
2.A/	Mar-	.	.	2.e\	Mar-	1.a\	Mar-
!	!	!LO:TX:t=P:problem=kreska pseudotaktowa	!	!	!	!	!
.	.	2c\	Vi-	.	.	.	.
!LO:TX:t=P:problem=kreska pseudotaktowa	!	!	!	!	!	!	!
4A/	-ty-	.	.	4e\	-ty-	.	.
=19-	=19-	=19-	=19-	=19-	=19-	=19-	=19-
!	!	!	!	!LO:TX:t=P:problem=kreska pseudotaktowa	!	!	!
1D/,<	-res	2d\	-de-	1d\,<	-res	.	.
*	*	*	*	*	*Xij	*	*
.	.	2A\	-te	.	.	2f\	-ty-
*	*	*	*	*	*	*custos:e	*
!	!	!	!	!	!	!LO:TX:t=P:problem=kreska pseudotaktowa	!
*	*ij	*	*	*	*	*	*
2.G/	et	2.B\	Mar-	1d\	cum	1g\	-res
*	*	*	*	*	*	*	*Xij
!LO:TX:t=P:problem=kreska pseudotaktowa	!	!LO:TX:t=P:problem=kreska pseudotaktowa	!	!	!	!	!
4G/	Vi-	4B\	-ty-	.	.	.	.
=20-	=20-	=20-	=20-	=20-	=20-	=20-	=20-
!	!	!	!	!	!	!LO:LB:g=original	!
2A/	-de-	2A\	-res	1c\	co-	2e/	cum
!LO:TX:t=P:problem=kreska pseudotaktowa	!	!	!	!	!	!	!
2F/	-te	1A/	cum	.	.	2f\	co-
2.G/	Mar-	.	.	2.B/	-ro-	2.d/	-ro-
!	!	!LO:TX:t=P:problem=kreska pseudotaktowa	!	!	!	!	!
.	.	2G/	co-	.	.	.	.
!	!	!	!	!LO:TX:t=P:problem=kreska pseudotaktowa	!	!LO:TX:t=P:problem=kreska pseudotaktowa	!
4G/	-ty-	.	.	4c/	.	4e/	.
=21-	=21-	=21-	=21-	=21-	=21-	=21-	=21-
*custos:d	*	*	*	*	*	*	*
*	*	*lig	*	*	*	*	*
2D/	-res	1F/	-ro-	1d\	-nis	4f\	.
*	*Xij	*	*	*	*	*	*
.	.	.	.	.	.	4g\	.
!LO:PB:g=original	!	!	!	!	!	!	!
1d\	cum	.	.	.	.	2.a\	.
*	*	*	*	*custos:d	*	*	*
!	!	!	!	!LO:TX:t=P:problem=kreska pseudotaktowa	!	!	!
.	.	1E/	.	1A/	.	.	.
.	.	.	.	.	.	4e/	.
!	!	!	!	!	!	!LO:TX:t=P::problem=kreska pseudotaktowa&colon;między nutą a kropką	!
2c\	co-	.	.	.	.	2.a\	.
*	*	*Xlig	*	*	*	*	*
=22-	=22-	=22-	=22-	=22-	=22-	=22-	=22-
!	!	!	!	!LO:LB:g=original	!	!	!
1Bn\	-ro-	2D/	-nis	2.d\	qui-	.	.
.	.	.	.	.	.	8g\L	.
.	.	.	.	.	.	8f\J	.
.	.	1d/	cum	.	.	2g\	.
.	.	.	.	4d\	-bus	.	.
!LO:TX:t=P:problem=kreska pseudotaktowa	!	!	!	!	!	!LO:TX:t=P:problem=kreska pseudotaktowa	!
1A\	-nis	.	.	2e\	co-	1a\	-nis
!	!	!LO:TX:t=P:problem=kreska pseudotaktowa	!	!LO:TX:t=P:problem=kreska pseudotaktowa	!	!	!
.	.	2c\	co-	2f\	-ro-	.	.
=23-	=23-	=23-	=23-	=23-	=23-	=23-	=23-
1rA	.	1B/	-ro-	2g\	-na-	0r	.
.	.	.	.	2d\	-uit	.	.
!	!	!LO:TX:t=P:problem=kreska pseudotaktowa	!	!LO:TX:t=P:problem=kreska pseudotaktowa	!	!	!
2.D/	qui-	1A/	-nis	1f\	e-	.	.
!LO:TX:t=P:problem=kreska pseudotaktowa	!	!	!	!	!	!	!
4D/	-bus	.	.	.	.	.	.
=24-	=24-	=24-	=24-	=24-	=24-	=24-	=24-
!	!	!	!	!	!	!LO:TX:t=P:problem=kreska pseudotaktowa	!
2E/	co-	00r	.	2e\	-os	1r	.
!	!	!	!	!LO:TX:t=P:problem=kreska pseudotaktowa	!	!	!
2F/	-ro-	.	.	2A/	do-	.	.
2G/	-na-	.	.	2B/	.	2.d/	qui-
!LO:TX:t=P:problem=kreska pseudotaktowa	!	!	!	!	!	!	!
2D/	-uit	.	.	1d\	.	.	.
.	.	.	.	.	.	4d/	-bus
=25-	=25-	=25-	=25-	=25-	=25-	=25-	=25-
*lig	*	*	*	*	*	*	*
1A\	e-	.	.	.	.	2e/	co-
!	!	!	!	!	!	!LO:TX:t=P:problem=kreska pseudotaktowa	!
.	.	.	.	2c/	-mi-	2f\	-ro-
!	!	!	!	!LO:TX:t=P:problem=kreska pseudotaktowa	!	!	!
1G/	.	.	.	1d\	-nus	2g\	-na-
.	.	.	.	.	.	2d/	-uit
*Xlig	*	*	*	*	*	*	*
=26-	=26-	=26-	=26-	=26-	=26-	=26-	=26-
!LO:TX:t=P:problem=kreska pseudotaktowa	!	!	!	!	!	!	!
1D/	-os	2.A\	qui-	00r	.	1f\	e-
.	.	4A\	-bus	.	.	.	.
*	*	*	*	*	*	*custos:d	*
!	!	!	!	!	!	!LO:TX:t=P:problem=kreska pseudotaktowa	!
0r	.	2B\	co-	.	.	1e\	-os
*	*	*custos:dd	*	*	*	*	*
!	!	!LO:TX:t=P:problem=kreska pseudotaktowa	!	!	!	!	!
.	.	2c\	-ro-	.	.	.	.
=27-	=27-	=27-	=27-	=27-	=27-	=27-	=27-
!	!	!LO:LB:g=original	!	!	!	!LO:LB:g=original	!
.	.	2d\	-na-	.	.	4d\	Do-
.	.	.	.	.	.	4e\	.
.	.	2A\	-uit	.	.	4f\	.
!	!	!	!	!	!	!LO:TX:t=P:problem=kreska pseudotaktowa	!
.	.	.	.	.	.	4g\	.
!	!	!LO:TX:t=P:problem=kreska pseudotaktowa	!	!	!	!	!
*	*ij	*	*	*	*	*	*
2.A/	qui-	1c/	e-	.	.	2.a\	.
4A/	-bus	.	.	.	.	8g\L	.
.	.	.	.	.	.	8f\J	.
=28-	=28-	=28-	=28-	=28-	=28-	=28-	=28-
!	!	!	!	!LO:TX:t=P:problem=kreska pseudotaktowa	!	!	!
2B\	co-	2B\	-os	1r	.	2g\	.
!LO:TX:t=P:problem=kreska pseudotaktowa	!	!	!	!	!	!	!
2c\	-ro-	1A/	d(o-	.	.	2e/	-mi-
!	!	!	!	!	!	!LO:TX:t=P:problem=kreska pseudotaktowa	!
*	*	*	*	*	*ij	*	*
2d\	-na-	.	.	2.d\	cum	1d/	-nus
!	!	!LO:TX:t=P:problem=kreska pseudotaktowa	!	!	!	!	!
2B\	-uit	2G/	-mi)-	.	.	.	.
.	.	.	.	4d\	co-	.	.
=29-	=29-	=29-	=29-	=29-	=29-	=29-	=29-
*custos:d	*	*	*	*	*	*	*
!	!	!LO:TX:t=P:problem=kreska pseudotaktowa	!	!	!	!	!
2c\	e-	1A/	-nus	2e\	-ro-	2r	.
!LO:LB:g=original	!	!	!	!LO:TX:t=P:problem=kreska pseudotaktowa	!	!	!
2d\	-os	.	.	2f\	-nis	1d/	qua-
*	*Xij	*	*	*	*	*	*
2G/	d(o-	1r	.	2g\	qui-	.	.
!	!	!	!	!	!	!LO:TX:t=P:problem=kreska pseudotaktowa	!
2A/	-mi)-	.	.	2e\	-bus	2c/	-bus
=30-	=30-	=30-	=30-	=30-	=30-	=30-	=30-
!LO:TX:t=P:problem=kreska pseudotaktowa	!	!	!	!	!	!	!
*	*	*	*ij	*	*	*	*
1D/	-nus	2.A\	qui-	1f\	co-	2d/	co-
.	.	.	.	.	.	2a\	-ro-
.	.	4A\	-bus	.	.	.	.
*	*	*	*	*custos:d	*	*	*
!	!	!	!	!LO:TX:t=P:problem=kreska pseudotaktowa	!	!	!
1rA	.	2B\	co-	1e\	-ro-	2.g\	-na-
!	!	!LO:TX:t=P:problem=kreska pseudotaktowa	!	!	!	!	!
.	.	2c\	-ro-	.	.	.	.
!	!	!	!	!	!	!LO:TX:t=P:problem=kreska pseudotaktowa	!
.	.	.	.	.	.	4e/	.
=31-	=31-	=31-	=31-	=31-	=31-	=31-	=31-
!	!	!	!	!LO:LB:g=original	!	!	!
2.D/	qui-	2d\	-na-	2d\	-na-	2f\	-uit
.	.	2A\	-uit	2f\	-uit	2d/	e-
4D/	-bus	.	.	.	.	.	.
!	!	!LO:TX:t=P:problem=kreska pseudotaktowa	!	!	!	!	!
2E/	co-	1c/	e-	2e,<\	eos	2g\	-os
!LO:TX:t=P:problem=kreska pseudotaktowa	!	!	!	!LO:TX:t=P:problem=kreska pseudotaktowa	!	!	!
2F/	-ro-	.	.	2A/	cum	4f\	.
!	!	!	!	!	!	!LO:TX:t=P:problem=kreska pseudotaktowa	!
.	.	.	.	.	.	4e\	.
=32-	=32-	=32-	=32-	=32-	=32-	=32-	=32-
2G/	-na-	2B\	-os	2B/	co-	2d/	D(o-
2E/	-uit	2.c\	d(o-	2G/	-ro-	2e/	-mi)-
*	*	*	*	*	*	*custos:d	*
!	!	!	!	!LO:TX:t=P:problem=kreska pseudotaktowa	!	!	!
1F/	e-	.	.	1A/	-nis	2c/	-nus
.	.	4B\	.	.	.	.	.
!	!	!	!	!	!	!LO:TX:t=P:problem=kreska pseudotaktowa	!
!	!	!	!	!	!	!LO:LB:g=original	!
.	.	1A\	.	.	.	2d/	co-
=33-	=33-	=33-	=33-	=33-	=33-	=33-	=33-
!LO:TX:t=P:problem=kreska pseudotaktowa	!	!	!	!	!	!	!
1E/	-os	.	.	2c/	qui-	1e\	-ro-
!	!	!LO:TX:t=P:problem=kreska pseudotaktowa	!	!	!	!	!
.	.	2G/	-mi)-	2B/	-bus	.	.
*	*	*custos:a	*	*	*	*	*
!	!	!LO:TX:t=P:problem=kreska pseudotaktowa	!	!	!	!	!
4D/	do-	0A/	-nus	2.d\	co-	2.f\	-na-
*	*	*	*Xij	*	*	*	*
4E/	.	.	.	.	.	.	.
4F/	.	.	.	.	.	.	.
!	!	!	!	!LO:TX:t=P:problem=kreska pseudotaktowa	!	!LO:TX:t=P:problem=kreska pseudotaktowa	!
4G/	.	.	.	4d\	-ro-	4f\	-uit
=34-	=34-	=34-	=34-	=34-	=34-	=34-	=34-
1.A\	.	.	.	2c/	-na-	2e/	e-
.	.	.	.	1d\	-uit	2d/	-os
!	!	!LO:LB:g=original	!	!	!	!	!
.	.	2r	.	.	.	2.e/	D(o-
!	!	!LO:TX:t=P:problem=kreska pseudotaktowa	!	!LO:TX:t=P:problem=kreska pseudotaktowa	!	!	!
2A/	-mi-	2A\	in	2c/	e-	.	.
.	.	.	.	.	.	4e/	-mi)-
=35-	=35-	=35-	=35-	=35-	=35-	=35-	=35-
*custos:d	*	*	*	*	*	*	*
!	!	!	!	!LO:TX:t=P:problem=kreska pseudotaktowa	!	!LO:TX:t=P:problem=kreska pseudotaktowa	!
!LO:TX:t=P:problem=kreska pseudotaktowa	!	!	!	!	!	!	!
0.D/	-nus	1A/	di-	1d\	-os	1d/	-nus
*	*	*	*	*	*Xij	*	*
.	.	2D/	-e	2r	.	1r	.
!	!	!LO:TX:t=P:problem=kreska pseudotaktowa	!	!LO:TX:t=P:problem=kreska pseudotaktowa	!	!	!
.	.	2A\	So-	2d\	in	.	.
=36-	=36-	=36-	=36-	=36-	=36-	=36-	=36-
.	.	2F/	-len-	1d\	di-	2r	.
!	!	!	!	!	!	!LO:TX:t=P:problem=kreska pseudotaktowa	!
.	.	2D/	-ni-	.	.	2a\	in
*	*	*lig	*	*	*	*	*
!LO:LB:g=original	!	!	!	!LO:TX:t=P:problem=kreska pseudotaktowa	!	!	!
1r	.	1E/	-ta-	1A/	-e	1a\	di-
=37-	=37-	=37-	=37-	=37-	=37-	=37-	=37-
!	!	!LO:TX:t=P:problem=kreska pseudotaktowa	!	!	!	!	!
2r	.	1F/	.	0rc	.	2d/	-e
2d\	in	.	.	.	.	2a\	So-
!LO:TX:t=P:problem=kreska pseudotaktowa	!	!	!	!	!	!LO:TX:t=P:problem=kreska pseudotaktowa	!
*	*	*Xlig	*	*	*	*	*
1d\	di-	2D/	-tis	.	.	2f\	-len-
!	!	!	!	!	!	!LO:TX:t=P:problem=kreska pseudotaktowa	!
.	.	2d\	So-	.	.	2d/	-ni-
=38-	=38-	=38-	=38-	=38-	=38-	=38-	=38-
1.A\	-e	2c\	-len-	2rA	.	1e\	-ta-
*	*	*	*	*custos:e	*	*	*
!	!	!LO:TX:t=P:problem=kreska pseudotaktowa	!	!	!	!	!
.	.	2A\	-ni-	2e\	in	.	.
!	!	!	!	!LO:LB:g=original	!	!	!
.	.	2.c\	-ta-	1e\	di-	2A/	-tis
!LO:TX:t=P:problem=kreska pseudotaktowa	!	!	!	!	!	!	!
2A/	in	.	.	.	.	1c/	et
.	.	4B\	.	.	.	.	.
=39-	=39-	=39-	=39-	=39-	=39-	=39-	=39-
1A\	di-	4A\	.	2A/	-e	.	.
.	.	4G\	.	.	.	.	.
*	*	*	*	*	*	*custos:d	*
!	!	!LO:TX:t=P::problem=kreska pseudotaktowa&colon;między nutą a kropką	!	!LO:TX:t=P:problem=kreska pseudotaktowa	!	!LO:TX:t=P:problem=kreska pseudotaktowa	!
.	.	2.A\	.	2e\	So-	2c/	Lae-
!	!	!	!	!	!	!LO:TX:t=P:problem=defekt zrodla	!
!	!	!	!	!	!	!LO:LB:g=original	!
2D/	-e	.	.	2f\	-len-	2.d/yy	-ti-
.	.	4G/	.	.	.	.	.
!LO:TX:t=P:problem=kreska pseudotaktowa	!	!	!	!	!	!	!
2d\	So-	2F/	.	2d\	-ni-	.	.
.	.	.	.	.	.	4d/	-ti-
=40-	=40-	=40-	=40-	=40-	=40-	=40-	=40-
!	!	!	!	!	!	!LO:TX:t=P:problem=kreska pseudotaktowa	!
2c\	-len-	1E/	.	2e\	-ta-	1A/	-ae
2A/	-ni-	.	.	1a\	-tis	.	.
*	*	*custos:A	*	*	*	*	*
!	!	!LO:TX:t=P:problem=kreska pseudotaktowa	!	!	!	!	!
1B-X\	-ta-	1D/	-tis	.	.	2r	.
!	!	!	!	!LO:TX:t=P:problem=kreska pseudotaktowa	!	!	!
.	.	.	.	2g\	.	2d/	et
=41-	=41-	=41-	=41-	=41-	=41-	=41-	=41-
!LO:TX:t=P:problem=kreska pseudotaktowa	!	!LO:LB:g=original	!	!	!	!	!
1A\	-tis	2r	.	2a,<\	.	2.c/	Lae-
.	.	2.A\	et	1e\	et	.	.
!	!	!	!	!	!	!LO:TX:t=P:problem=kreska pseudotaktowa	!
.	.	.	.	.	.	4B/	.
2r	.	.	.	.	.	4c/	.
.	.	4B\	.	.	.	4d/	.
!	!	!LO:TX:t=P:problem=kreska pseudotaktowa	!	!LO:TX:t=P:problem=kreska pseudotaktowa	!	!	!
2A/	So-	2c\	.	2c/	Lae-	4e/	.
.	.	.	.	.	.	4f/	.
=42-	=42-	=42-	=42-	=42-	=42-	=42-	=42-
2G/	-len-	2B\	Lae-	2d\	-ti-	1g\	.
!LO:TX:t=P:problem=kreska pseudotaktowa	!	!	!	!	!	!	!
2E/	-ni-	2.c\	.	2e\	-ti-	.	.
!	!	!	!	!LO:TX:t=P:problem=kreska pseudotaktowa	!	!	!
1F/	-ta-	.	.	1A/,<	-ae	2c/	-ti-
.	.	4B\	.	.	.	.	.
!	!	!	!	!	!	!LO:TX:t=P:problem=kreska pseudotaktowa	!
.	.	1A\	-ti-	.	.	2d/	-ti-
=43-	=43-	=43-	=43-	=43-	=43-	=43-	=43-
*custos:A	*	*	*	*	*	*	*
*	*	*	*	*	*ij	*	*
1E/	-tis	.	.	1B/	et	1.e\	-ae
!	!	!LO:TX:t=P:problem=kreska pseudotaktowa	!	!	!	!	!
.	.	2G/	-ti-	.	.	.	.
!LO:LB:g=original	!	!	!	!	!	!	!
2.A/	et	2A,<\	-ae	2.c/	Le-	.	.
!	!	!	!	!	!	!LO:TX:t=P:problem=kreska pseudotaktowa	!
.	.	2.c\	et	.	.	2a\	So-
4Bny\	.	.	.	4d\	.	.	.
=44-	=44-	=44-	=44-	=44-	=44-	=44-	=44-
2c\	.	.	.	2e\	.	2g\	-len-
.	.	4B\	.	.	.	.	.
!	!	!LO:TX:t=P:problem=kreska pseudotaktowa	!	!	!	!	!
2d\	Lae-	2A\	.	1d\	-ti-	2f\	-ni-
2G/	-ti-	2B-X\	Lae-	.	.	2g\	-ta-
!LO:TX:t=P:problem=kreska pseudotaktowa	!	!	!	!	!	!LO:TX:t=P:problem=kreska pseudotaktowa	!
2A/	-ti-	2.A\	.	2c/	-ti-	2e/	-tis
=45-	=45-	=45-	=45-	=45-	=45-	=45-	=45-
*	*	*	*	*custos:c	*	*	*
!LO:TX:t=P:problem=kreska pseudotaktowa	!	!	!	!LO:TX:t=P:problem=kreska pseudotaktowa	!	!	!
1D/	-ae	.	.	0d\	-ae	2.f\	et
*	*	*	*	*	*Xij	*	*
.	.	4G/	.	.	.	.	.
.	.	4F/	.	.	.	.	.
!	!	!LO:TX:t=P:problem=kreska pseudotaktowa	!	!	!	!	!
.	.	4E/	.	.	.	4g\	.
2rF	.	1F/	-ti-	.	.	2a\	.
2d\	So-	.	.	.	.	2.b\	Lae-
=46-	=46-	=46-	=46-	=46-	=46-	=46-	=46-
!	!	!	!	!LO:LB:g=original	!	!	!
2c\	-lem-	1E/	-ti-	2r	.	.	.
*	*	*	*	*	*	*custos:a	*
.	.	.	.	.	.	4a\	.
!LO:TX:t=P:problem=kreska pseudotaktowa	!	!	!	!	!	!LO:PB:g=original	!
2A/	-ni-	.	.	2c/	So-	1a\	-ti-
*	*	*custos:dd	*	*	*	*	*
!	!	!	!	!LO:TX:t=P:problem=kreska pseudotaktowa	!	!	!
1B-X\	-ta-	2D/	-ae	1d\	-len-	.	.
!	!	!LO:TX:t=P:problem=kreska pseudotaktowa	!	!	!	!	!
!	!	!LO:LB:g=original	!	!	!	!	!
.	.	2d\	So-	.	.	2g\	-ti-
=47-	=47-	=47-	=47-	=47-	=47-	=47-	=47-
!	!	!	!	!	!	!LO:TX:t=P:problem=kreska pseudotaktowa	!
2A,</	-tis	2c\	-len-	2e\	-ni-	1a\	-ae
1D/	et	2A\	-ni-	1f\	-ta-	.	.
!	!	!LO:TX:t=P:problem=kreska pseudotaktowa	!	!	!	!	!
.	.	1Bny/	-ta-	.	.	1rb	.
!LO:TX:t=P:problem=kreska pseudotaktowa	!	!	!	!LO:TX:t=P:problem=kreska pseudotaktowa	!	!	!
2E/	lae-	.	.	2e\	-tis	.	.
=48-	=48-	=48-	=48-	=48-	=48-	=48-	=48-
2F/	-ti-	2A\	-tis	2c/	et	2rg	.
2D/	-ti-	1d/	et	2f\	Lae-	2a\	So-
!LO:TX:t=P:problem=kreska pseudotaktowa	!	!	!	!	!	!	!
1A\	-ae	.	.	2.e\	-ti-	2a\	-len-
!	!	!	!	!	!	!LO:TX:t=P:problem=kreska pseudotaktowa	!
.	.	4c\	.	.	.	2a\	-ni-
!	!	!LO:TX:t=P:problem=kreska pseudotaktowa	!	!LO:TX:t=P:problem=kreska pseudotaktowa	!	!	!
.	.	4B\	.	4e\	-ti-	.	.
=49-	=49-	=49-	=49-	=49-	=49-	=49-	=49-
2r	.	2c\	.	2c,</	-ae	2g\	-ta-
*custos:A	*	*	*	*	*	*	*
2D/	et	2A\	.	2d\	et	2f\	-tis
(2A/	Lae-	2c\	Lae-	2.e\	Lae-	2a\	et
!	!	!LO:TX:t=P::problem=kreska pseudotaktowa&colon;między nutą a kropką	!	!	!	!LO:TX:t=P:problem=kreska pseudotaktowa	!
2E/)	.	2.B\	.	.	.	2g\	Lae-
!	!	!	!	!LO:TX:t=P:problem=kreska pseudotaktowa	!	!	!
.	.	.	.	4d\	.	.	.
=50-	=50-	=50-	=50-	=50-	=50-	=50-	=50-
1F/	-ti-	.	.	2c/	.	2f\	-ti-
.	.	4A\	.	.	.	.	.
.	.	1A/	-ti-	4B/	.	2d/	-ti-
.	.	.	.	4A/	.	.	.
!	!	!	!	!LO:TX:t=P:problem=kreska pseudotaktowa	!	!LO:TX:t=P:problem=kreska pseudotaktowa	!
2.E/	.	.	.	1B/	-ti-	0e\	-ae
.	.	2G/	-ti-	.	.	.	.
4E/	-ti-	.	.	.	.	.	.
=51-	=51-	=51-	=51-	=51-	=51-	=51-	=51-
!LO:TX:t=P:problem=kreska pseudotaktowa	!	!LO:TX:t=P:problem=kreska pseudotaktowa	!	!	!	!	!
1A\	-ae	0A/	-ae	2.c#X/	-ti-	.	.
.	.	.	.	4c#/	-ae	.	.
!	!	!	!	!LO:TX:t=P:problem=kreska pseudotaktowa	!	!	!
2r	.	.	.	1d\	.	1r	.
1d\	al-	.	.	.	.	.	.
=52-	=52-	=52-	=52-	=52-	=52-	=52-	=52-
!	!	!LO:TX:t=P:problem=kreska pseudotaktowa	!	!	!	!	!
!	!	!LO:TX:b:t=2	!	!	!	!LO:TX:t=P:problem=kreska pseudotaktowa	!
.	.	0r	.	00r	.	1a\	al-
!LO:TX:t=P:problem=kreska pseudotaktowa	!	!	!	!	!	!	!
2A/	-le-	.	.	.	.	.	.
1c\	-lu-	.	.	.	.	2e/	-le-
.	.	.	.	.	.	2.g\	-lu-
=53-	=53-	=53-	=53-	=53-	=53-	=53-	=53-
1G/	-ia	2r	.	.	.	.	.
.	.	.	.	.	.	4f\	.
.	.	1d/	al-	.	.	4d/	.
*	*	*	*	*	*	*custos:f	*
!	!	!	!	!	!	!LO:TX:t=P:problem=kreska pseudotaktowa	!
.	.	.	.	.	.	4e/	.
!LO:TX:t=P:problem=kreska pseudotaktowa	!	!	!	!	!	!LO:LB:g=original	!
*	*ij	*	*	*	*	*	*
1d\	al-	.	.	.	.	1f\	.
!	!	!LO:TX:t=P:problem=kreska pseudotaktowa	!	!	!	!	!
.	.	2A\	-le-	.	.	.	.
=54-	=54-	=54-	=54-	=54-	=54-	=54-	=54-
!	!	!	!	!	!	!LO:TX:t=P:problem=kreska pseudotaktowa	!
2A/	-le-	1c/	-lu-	1a\	al-	1e\	-ia
1c\	-lu-	.	.	.	.	.	.
*	*	*custos:dd	*	*	*	*	*
*	*	*	*	*custos:g	*	*	*
!	!	!LO:TX:t=P:problem=kreska pseudotaktowa	!	!	!	!	!
.	.	1G/	-ia	2f\	-le-	2r	.
*	*	*	*	*	*	*	*ij
!	!	!	!	!LO:LB:g=original	!	!	!
1G/	-ia	.	.	2.g\	.	2.d/	al-
*	*Xij	*	*	*	*	*	*
=55-	=55-	=55-	=55-	=55-	=55-	=55-	=55-
!	!	!LO:LB:g=original	!	!	!	!	!
.	.	2.d\	al-	.	.	.	.
.	.	.	.	4f\	.	4e/	.
2.d\	al-	.	.	4d\	.	4f\	.
!	!	!	!	!LO:TX:t=P:problem=kreska pseudotaktowa	!	!LO:TX:t=P:problem=kreska pseudotaktowa	!
.	.	4c\	-le-	4e\	.	4g\	.
.	.	4A\	.	1f\	-lu-	1a\	.
4c\	.	4B\	.	.	.	.	.
!	!	!LO:TX:t=P::problem=kreska pseudotaktowa&colon;między nutą a kropką	!	!	!	!	!
4A\	.	2.c\	.	.	.	.	.
4Bny\	.	.	.	.	.	.	.
=56-	=56-	=56-	=56-	=56-	=56-	=56-	=56-
1c\	.	.	.	2e\	-ia	2g\	-le-
.	.	4B\	.	.	.	.	.
!	!	!	!	!	!	!LO:TX:t=P:problem=kreska pseudotaktowa	!
*	*	*	*	*	*ij	*	*
.	.	4G\	.	2.g\	al-	2e/	-lu-
.	.	4A\	.	.	.	.	.
*lig	*	*	*	*	*	*	*
1G/	-le-	2B\	.	.	.	2d,</	-ia
.	.	.	.	4f\	-le-	.	.
!	!	!LO:TX:t=P:problem=kreska pseudotaktowa	!	!	!	!	!
.	.	2B\	-lu-	4d\	.	2g\	al-
!	!	!	!	!LO:TX:t=P:problem=kreska pseudotaktowa	!	!	!
.	.	.	.	4e\	.	.	.
=57-	=57-	=57-	=57-	=57-	=57-	=57-	=57-
*custos:A	*	*	*	*	*	*	*
!LO:TX:t=P:problem=kreska pseudotaktowa	!	!	!	!	!	!	!
1d\	.	2A\	-ia	2f\	.	2f\	.
!	!	!	!	!	!	!LO:TX:t=P::problem=kreska pseudotaktowa&colon;między nutą a kropką	!
.	.	2.d\	al-	2f\	.	2.a\	.
*Xlig	*	*	*	*	*	*	*
1A\	-lu-	.	.	1e\	-lu-	.	.
.	.	8c\L	-le-	.	.	4g\	.
.	.	8B\J	.	.	.	.	.
!	!	!LO:TX:t=P:problem=kreska pseudotaktowa	!	!	!	!	!
.	.	2c\	.	.	.	2e/	-le-
=58-	=58-	=58-	=58-	=58-	=58-	=58-	=58-
!LO:TX:t=P:problem=kreska pseudotaktowa	!	!	!	!LO:TX:t=P:problem=kreska pseudotaktowa	!	!	!
1D/	-ia	2d\	.	1d\,<	-ia	1f\	-lu-
*	*	*	*	*	*Xij	*	*
.	.	2.A\	.	.	.	.	.
!	!	!	!	!	!	!LO:TX:t=P:problem=kreska pseudotaktowa	!
2r	.	.	.	2.A/	al-	1e\	-ia
*	*	*	*	*	*	*	*Xij
.	.	4B\	.	.	.	.	.
!	!	!LO:TX:t=P::problem=kreska pseudotaktowa&colon;między nutą a kropką	!	!	!	!	!
*	*ij	*	*	*	*	*	*
1A\	al-	2.c\	.	.	.	.	.
.	.	.	.	4B/	.	.	.
=59-	=59-	=59-	=59-	=59-	=59-	=59-	=59-
.	.	.	.	4cny/	.	2rc	.
.	.	4B\	.	4d/	.	.	.
2E/	-le-	4G\	.	2.e\	.	2.g\	al-
.	.	4A\	.	.	.	.	.
1G/	-lu-	2B\	.	.	.	.	.
.	.	.	.	4d\	.	4f\	-le-
!	!	!LO:TX:t=P:problem=kreska pseudotaktowa	!	!	!	!	!
.	.	2B\	-lu-	4B/	.	4d\	.
!	!	!	!	!LO:TX:t=P:problem=kreska pseudotaktowa	!	!LO:TX:t=P:problem=kreska pseudotaktowa	!
.	.	.	.	4c/	.	4e\	.
=60-	=60-	=60-	=60-	=60-	=60-	=60-	=60-
!LO:TX:t=P:problem=kreska pseudotaktowa	!	!LO:SIC:v:cistos:d	!	!	!	!	!
1D/	-ia	2A\	-ia	2.d\	.	4f\	.
*	*	*	*	*	*	*custos:a	*
.	.	.	.	.	.	4g\	.
!	!	!LO:LB:g=original	!	!	!	!LO:LB:g=original	!
.	.	2.D/	al-	.	.	2.a\	.
.	.	.	.	4e\	.	.	.
2r	.	.	.	4f\	.	.	.
*	*	*	*	*custos:a	*	*	*
.	.	4E/	-le-	4g\	.	4g\	.
!	!	!LO:TX:t=P::problem=kreska pseudotaktowa&colon;między nutą a kropką	!	!LO:TX:t=P:problem=kreska pseudotaktowa	!	!	!
!	!	!	!	!LO:LB:g=original	!	!	!
1d\	al-	2.F/	.	2a\	-le-	4f\	.
!	!	!	!	!	!	!LO:TX:t=P:problem=kreska pseudotaktowa	!
.	.	.	.	.	.	4e\	.
=61-	=61-	=61-	=61-	=61-	=61-	=61-	=61-
.	.	.	.	2f\	-lu-	2d/	-lu-
.	.	4G/	.	.	.	.	.
!	!	!LO:TX:t=P::problem=kreska pseudotaktowa&colon;między nutą a kropką	!	!	!	!	!
2A/	-le-	2.A\	.	2.e\	-ia	2c/	.
!	!	!	!	!	!	!LO:TX:t=P:problem=kreska pseudotaktowa	!
1B-X\	-lu-	.	.	.	.	1d/	-ia
.	.	4A\	.	4d\	.	.	.
*	*	*	*	*	*ij	*	*
.	.	2G/	-lu-	1d\	al-	.	.
=62-	=62-	=62-	=62-	=62-	=62-	=62-	=62-
!LO:TX:t=P:problem=kreska pseudotaktowa	!	!LO:TX:t=P:problem=fermata również u dołu	!	!	!	!	!
*	*	*	*	*	*	*	*ij
1A\	-ia	[0A/;;l	-ia	.	.	2e/	al-
!	!	!	!	!LO:TX:t=P:problem=kreska pseudotaktowa	!	!LO:TX:t=P:problem=kreska pseudotaktowa	!
.	.	.	.	2c/	.	2e/	-le-
2.D/	al-	.	.	2d\	-le-	2.f\	-lu-
!	!	!	!	!LO:TX:t=P:problem=kreska pseudotaktowa	!	!	!
.	.	.	.	2d\	-lu-	.	.
4E/	-le-	.	.	.	.	8e/L	.
!	!	!	!	!	!	!LO:TX:t=P:problem=kreska pseudotaktowa	!
.	.	.	.	.	.	8d/J	.
=63-	=63-	=63-	=63-	=63-	=63-	=63-	=63-
2F/	-lu-	0A/_	.	2A/	-ia	2c/	-ia
2D/	.	.	.	1f\	al-	1d/	al-
1A\	.	.	.	.	.	.	.
!	!	!	!	!	!	!LO:TX:t=P:problem=kreska pseudotaktowa	!
.	.	.	.	2e\	-le-	2c/	-le-
=64-	=64-	=64-	=64-	=64-	=64-	=64-	=64-
0D/	.	0A/_	.	0d\	-lu-	0f\	-lu-
=65-	=65-	=65-	=65-	=65-	=65-	=65-	=65-
!	!	!	!	!LO:TX:b:t=1mo.	!	!LO:TX:b:t=An Alto (?)	!
!	!	!	!	!LO:TX:t=P:problem=fermata również u dołu	!	!	!
0A\;;	-ia	0A/]	.	0c\;;	-ia	0e\	-ia
*	*	*	*	*	*Xij	*	*Xij
==	==	==	==	==	==	==	==
*-	*-	*-	*-	*-	*-	*-	*-
!!!RDF**kern: l = terminal long
!!!RDF**kern: > = above
!!!RDF**kern: < = below
!!!system-decoration: [(s1,s2,s3,s4)]
!!!EED: Andrzej Borzym
!!!EEV: 2021-03-27
!!!ENC: Kamil Watkowski
!!!END: 2021-03-22
